storage/app/icons/phosphoricons/fill/circles-three-plus-fill.svg

<svg xmlns="http://www.w3.org/2000/svg" fill="currentColor" viewBox="0 0 256 256"><path d="M120 80a40 40 0 1 1-40-40 40 40 0 0 1 40 40m56 40a40 40 0 1 0-40-40 40 40 0 0 0 40 40m-96 16a40 40 0 1 0 40 40 40 40 0 0 0-40-40m128 32h-24v-24a8 8 0 0 0-16 0v24h-24a8 8 0 0 0 0 16h24v24a8 8 0 0 0 16 0v-24h24a8 8 0 0 0 0-16"/></svg>

<svg xmlns="http://www.w3.org/2000/svg" viewBox="0 0 256 256" fill="currentColor"><path d="M120,80A40,40,0,1,1,80,40,40,40,0,0,1,120,80Zm56,40a40,40,0,1,0-40-40A40,40,0,0,0,176,120ZM80,136a40,40,0,1,0,40,40A40,40,0,0,0,80,136Zm128,32H184V144a8,8,0,0,0-16,0v24H144a8,8,0,0,0,0,16h24v24a8,8,0,0,0,16,0V184h24a8,8,0,0,0,0-16Z"/></svg>
